packages/katcn/src/icons/svg/fire.svg

<svg width="24" height="24" viewBox="0 0 24 24" fill="none" xmlns="http://www.w3.org/2000/svg">
<path d="M20 14.4093C19.7748 8.35169 15.8344 3.83604 13.4702 1.74343C12.3444 0.75219 10.543 0.75219 9.41722 1.74343C7.16556 3.94618 3.22517 8.35169 3 14.4093C3 14.5194 3 14.7397 3 14.8498C3 19.3655 6.82781 23 11.4437 23C16.1722 23 19.8874 19.3655 19.8874 14.8498C20 14.6295 20 14.5194 20 14.4093ZM12.7947 20.3567C12.2318 20.7972 11.5563 20.9074 10.8808 20.6871C10.3179 20.4668 9.86755 20.2466 9.64238 19.6959C9.30464 18.9249 9.30464 17.9337 9.64238 16.9424C10.0927 15.7309 11.106 14.189 11.5563 14.0788C12.9073 15.1802 13.8079 17.0526 13.8079 18.5945C13.6954 19.3655 13.3576 19.9161 12.7947 20.3567ZM15.947 19.035C15.947 18.9249 15.947 18.8148 15.947 18.7046C15.947 16.3917 14.7086 13.9687 12.9073 12.4268C12.3444 11.9862 11.6689 11.766 10.8808 11.9862C8.74172 12.5369 7.50331 16.1715 7.50331 16.2816C7.16556 17.2728 7.05298 18.2641 7.16556 19.1452C6.03974 18.0438 5.25166 16.5019 5.25166 14.8498C5.25166 14.7397 5.25166 14.6295 5.25166 14.5194C5.36424 9.23279 8.96689 5.26783 10.9934 3.39549C11.106 3.28536 11.3311 3.17522 11.4437 3.17522C11.5563 3.17522 11.7815 3.28536 12.0066 3.39549C14.1457 5.26783 17.6358 9.23279 17.7483 14.5194C17.7483 14.6295 17.7483 14.7397 17.7483 14.7397C17.7483 16.5019 17.0728 17.9337 15.947 19.035Z" fill="black"/>
</svg>

<svg xmlns="http://www.w3.org/2000/svg" fill="none" viewBox="0 0 24 24"><path fill="#000" d="M20 14.41c-.225-6.058-4.166-10.574-6.53-12.667-1.126-.99-2.927-.99-4.053 0C7.166 3.946 3.225 8.352 3 14.41v.44C3 19.367 6.828 23 11.444 23c4.728 0 8.443-3.634 8.443-8.15.113-.22.113-.33.113-.44m-7.205 5.947c-.563.44-1.239.55-1.914.33-.563-.22-1.013-.44-1.239-.991-.337-.771-.337-1.762 0-2.754.45-1.211 1.464-2.753 1.914-2.863 1.351 1.101 2.252 2.974 2.252 4.515-.113.771-.45 1.322-1.013 1.763m3.152-1.322v-.33c0-2.313-1.238-4.736-3.04-6.278-.563-.44-1.238-.661-2.026-.44-2.14.55-3.378 4.185-3.378 4.295-.337.99-.45 1.982-.337 2.863-1.126-1.101-1.914-2.643-1.914-4.295v-.33c.112-5.287 3.715-9.252 5.741-11.125.113-.11.338-.22.45-.22.113 0 .338.11.564.22 2.139 1.873 5.629 5.838 5.741 11.124v.22c0 1.763-.675 3.195-1.801 4.296"/></svg>
